64x64/places/folder-yellow-music.svg

<svg xmlns="http://www.w3.org/2000/svg" width="64" height="64" version="1"><rect style="opacity:.2" width="56" height="36" x="4" y="22" rx="2.8" ry="2.8"/><path style="fill:#b58f1b" d="M4 46.2C4 47.751 5.249 49 6.8 49h50.4c1.551 0 2.8-1.249 2.8-2.8V15.8c0-1.551-1.249-2.8-2.8-2.8H32c-4.2 0-5.6-6-9.8-6H6.8A2.794 2.794 0 0 0 4 9.8"/><rect style="opacity:.2" width="56" height="36" x="4" y="20" rx="2.8" ry="2.8"/><rect style="fill:#f4f4f7" width="48" height="22" x="8" y="16" rx="2.8" ry="2.8"/><rect style="fill:#e2b322" width="56" height="36" x="4" y="21" rx="2.8" ry="2.8"/><path style="opacity:.1;fill:#f4f4f7" d="M6.8 7C5.25 7 4 8.25 4 9.8v1.001A2.795 2.795 0 0 1 6.8 8H22.2c4.2 0 5.601 6 9.801 6h25.199A2.796 2.796 0 0 1 60 16.801v-1A2.796 2.796 0 0 0 57.199 13H32c-4.2 0-5.601-6-9.801-6z"/><path style="fill:#4f3e0c" d="M29 40.54c-.6-.36-1.3-.54-2-.54-2.2 0-4 1.8-4 4s1.8 4 4 4 4-1.8 4-4V34h8v6.54c-.6-.36-1.3-.54-2-.54-2.2 0-4 1.8-4 4s1.8 4 4 4 4-1.8 4-4V30H29"/></svg>

<svg xmlns="http://www.w3.org/2000/svg" width="64" height="64" version="1">
 <rect style="opacity:0.2" width="56" height="36" x="4" y="22" rx="2.8" ry="2.8"/>
 <path style="fill:#b58f1b" d="M 4,46.2 C 4,47.751 5.2488,49 6.8,49 H 57.2 C 58.751,49 60,47.751 60,46.2 V 15.8 C 60,14.249 58.751,13 57.2,13 H 32 C 27.8,13 26.4,7 22.2,7 H 6.8 C 5.2488,7 4,8.2488 4,9.8"/>
 <rect style="opacity:0.2" width="56" height="36" x="4" y="20" rx="2.8" ry="2.8"/>
 <rect style="fill:#f4f4f7" width="48" height="22" x="8" y="16" rx="2.8" ry="2.8"/>
 <rect style="fill:#e2b322" width="56" height="36" x="4" y="21" rx="2.8" ry="2.8"/>
 <path style="opacity:0.1;fill:#f4f4f7" d="M 6.8008,7 C 5.2496,7 4,8.2496 4,9.8008 V 10.801 C 4,9.2496 5.2496,8 6.8008,8 H 22.199 C 26.399,8 27.8,14 32,14 H 57.199 C 58.75,14 60,15.25 60,16.801 V 15.801 C 60,14.25 58.75,13 57.199,13 H 32 C 27.8,13 26.399,7 22.199,7 Z"/>
 <path style="fill:#4f3e0c" d="M 29,40.54 C 28.4,40.18 27.7,40 27,40 24.8,40 23,41.8 23,44 23,46.2 24.8,48 27,48 29.2,48 31,46.2 31,44 V 34 H 39 V 40.54 C 38.4,40.18 37.7,40 37,40 34.8,40 33,41.8 33,44 33,46.2 34.8,48 37,48 39.2,48 41,46.2 41,44 V 30 H 29"/>
</svg>
